svg/girl_1015y_positive.svg

<svg width="48" height="48" viewBox="0 0 48 48" fill="none" xmlns="http://www.w3.org/2000/svg">
<path d="M20.0138 3.00195C20.0428 3.10345 20.0788 3.19675 20.1208 3.28315L20.1228 3.28515C20.1658 3.37125 20.2128 3.45185 20.2638 3.52725L20.2658 3.52925C20.5728 3.98454 20.9808 4.28274 20.9338 4.89643C19.6658 4.41974 18.7508 4.70883 17.5778 4.74603C17.2918 4.75513 16.9948 4.75303 16.6678 4.71673C16.8618 4.81353 17.0438 4.87953 17.2208 4.93353C18.1228 5.20943 18.8258 5.03273 19.6228 5.31042C16.2998 6.29881 14.3949 8.57928 14.0039 12.0858C13.9179 13.7738 13.9099 15.4668 13.9199 17.1578L13.7049 17.0998C12.9479 16.8928 12.6909 17.2798 12.7729 18.5038C12.7879 18.7198 12.8279 18.9218 12.8609 19.1268H12.8459C12.8609 19.1838 12.8699 19.2377 12.8849 19.2947C12.9109 19.4347 12.9449 19.5677 12.9799 19.7007C13.6909 22.7317 13.3479 25.4027 12.8459 28.0176V28.0206C12.7849 28.2806 13.0869 28.3746 13.3589 28.0206C13.6069 27.7296 13.8479 27.4966 14.0859 27.2906C13.9849 28.2036 13.8409 29.1026 13.6699 29.9916V29.9956C13.6089 30.2546 13.9119 30.3486 14.1839 29.9956C14.8419 29.2196 15.4619 28.7716 16.0568 28.5366C16.3228 29.3586 16.5528 30.1836 16.7518 31.0116V31.0156C16.8038 31.2766 17.1188 31.2366 17.2208 30.8026C17.5088 29.7916 17.9028 29.1146 18.3648 28.6536C18.9578 29.2016 19.5918 29.6826 20.2658 30.0716C22.4108 31.1586 24.7237 31.4646 27.6537 30.0756C28.4017 29.6816 29.0517 29.1976 29.6347 28.6516C30.0947 29.1126 30.4877 29.7876 30.7747 30.7946C30.8767 31.2286 31.1917 31.2686 31.2437 31.0076V31.0036C31.4427 30.1756 31.6727 29.3506 31.9386 28.5286C32.5336 28.7636 33.1536 29.2116 33.8116 29.9876C34.0846 30.3406 34.3866 30.2466 34.3256 29.9876V29.9836C34.1546 29.0946 34.0106 28.1966 33.9096 27.2826C34.1476 27.4886 34.3886 27.7216 34.6366 28.0136C34.9086 28.3666 35.2106 28.2726 35.1496 28.0136V28.0096C34.6386 25.3467 34.2906 22.6267 35.0546 19.5267C35.0576 19.5127 35.0626 19.5037 35.0656 19.4897C35.0816 19.4217 35.1016 19.3207 35.1206 19.2417C35.1316 19.2007 35.1386 19.1607 35.1496 19.1187H35.1476C35.3796 18.1338 35.6706 16.6468 34.2286 17.0798C33.9216 14.2318 34.2856 12.8428 33.5196 9.97257C33.1946 9.04688 32.9066 8.52668 32.3026 7.77139C31.3147 6.53661 29.8647 5.67142 27.9727 5.18743C26.9617 4.92903 25.4357 4.80333 23.9137 4.81043C23.7058 4.81143 23.4998 4.82013 23.2928 4.82613C23.2958 4.82463 23.3018 4.82363 23.3048 4.82223C24.1977 4.01844 24.6427 4.05354 25.7677 3.62105C26.0827 3.49955 26.4277 3.35885 26.8807 3.13085C26.5877 3.22515 26.3357 3.28085 26.1087 3.31635C26.0527 3.32515 26.0077 3.32605 25.9547 3.33195C25.7927 3.35035 25.6377 3.36245 25.5017 3.35935C25.4477 3.35815 25.3977 3.35305 25.3477 3.34955C25.2247 3.34065 25.1057 3.33185 24.9977 3.31445C24.9547 3.30755 24.9107 3.30035 24.8687 3.29295C24.7277 3.26765 24.5887 3.24605 24.4547 3.22845C24.4077 3.22225 24.3567 3.22025 24.3087 3.21675C24.2257 3.21075 24.1407 3.20755 24.0527 3.21285C23.9917 3.21665 23.9228 3.23485 23.8568 3.24605C23.7738 3.26025 23.6928 3.26765 23.5998 3.29685C23.4418 3.34635 23.2698 3.41895 23.0738 3.52335C22.8418 3.64765 22.5808 3.81094 22.2728 4.03704C21.9898 3.44595 21.1178 3.54275 20.4768 3.29875C20.4708 3.29645 20.4648 3.29325 20.4588 3.29095C20.3808 3.26025 20.3048 3.22395 20.2338 3.18155C20.1538 3.13105 20.0778 3.07515 20.0138 3.00195ZM17.0208 13.5248C17.2078 13.5018 17.4738 13.5858 17.9608 13.7578C19.5818 14.3298 20.9578 15.1758 22.5038 16.5508C23.1878 17.1588 23.2168 17.1418 23.2188 16.1268C23.2198 15.3508 23.0838 14.7628 22.7828 14.2418C22.6668 14.0398 22.5148 13.7098 22.5638 13.6798C27.6667 14.9228 28.3097 12.0488 32.3766 15.7538C32.5196 15.9138 32.7006 16.9068 32.7926 18.0268C32.8216 18.3838 32.8776 18.6508 32.9176 18.6268C32.9566 18.6028 33.0726 18.4158 33.1756 18.2128C33.2786 18.0088 33.4916 17.7178 33.6476 17.5658L33.7266 17.4898C33.7296 17.5598 33.7286 17.5828 33.7316 17.6538C36.0286 17.0548 34.0996 20.4237 33.4546 21.4387C33.0616 21.8617 32.9876 21.9987 32.6656 22.8847C31.4867 25.6127 30.0727 28.1646 27.4137 29.5856C24.6297 30.9236 22.4338 30.6276 20.3958 29.5816C18.0268 28.1916 16.1298 25.6887 15.0939 22.5837C14.9049 22.0177 14.8089 21.8477 14.5099 21.5507C13.3759 20.0947 12.4779 17.2118 14.4569 17.6908C14.4559 17.6678 14.4559 17.6508 14.4549 17.6268L14.4839 17.6558C14.7139 17.8918 14.9779 18.1908 15.0719 18.3198L15.2419 18.5548L15.2479 18.0758C15.2599 16.7138 15.7589 15.1378 16.5608 13.9318C16.7278 13.6788 16.8348 13.5488 17.0208 13.5248ZM20.3068 17.9358C19.7228 17.9348 19.2498 18.4068 19.2498 18.9898C19.2498 19.5727 19.7238 20.0457 20.3068 20.0447C20.8888 20.0447 21.3608 19.5727 21.3608 18.9898C21.3608 18.4078 20.8888 17.9358 20.3068 17.9358ZM27.7477 18.1148C27.1657 18.1148 26.6937 18.5878 26.6927 19.1697C26.6937 19.7517 27.1657 20.2237 27.7477 20.2247C28.3297 20.2237 28.8027 19.7517 28.8027 19.1697C28.8027 18.5878 28.3297 18.1148 27.7477 18.1148ZM20.5388 25.5917C20.5708 26.7687 22.1238 27.7126 24.0287 27.7126C25.9327 27.7116 27.4837 26.7677 27.5157 25.5917C24.7847 26.6187 22.5328 26.4337 20.5388 25.5917ZM4 34.0156V44.0154H43.9975V34.0156H4ZM13.4489 35.3455C14.2239 35.3455 14.8159 35.6015 15.2269 36.1125C15.6369 36.6205 15.8479 37.3515 15.8569 38.3065V39.6145C15.8569 40.5985 15.6529 41.3515 15.2459 41.8725C14.8389 42.3935 14.2439 42.6535 13.4589 42.6535C12.6839 42.6535 12.0899 42.3975 11.6799 41.8865C11.2689 41.3745 11.0589 40.6435 11.0489 39.6885V38.3785C11.0489 37.3855 11.2559 36.6315 11.6659 36.1165C12.0799 35.6025 12.6739 35.3455 13.4489 35.3455ZM8.60154 35.4335H8.75384V42.5565H7.34176V37.1145L5.65618 37.6365V36.4875L8.60154 35.4335ZM23.9793 35.4335H24.1323V42.5565H22.7204V37.1145L21.0344 37.6365V36.4875L23.9793 35.4335ZM27.0673 35.4425H31.0543V36.6205H28.2263L28.0503 38.1495C28.3853 37.9705 28.7403 37.8805 29.1183 37.8805C29.7963 37.8805 30.3283 38.0915 30.7123 38.5115C31.0963 38.9315 31.2883 39.5195 31.2883 40.2745C31.2883 40.7345 31.1903 41.1465 30.9953 41.5115C30.8033 41.8725 30.5273 42.1535 30.1653 42.3545C29.8043 42.5535 29.3763 42.6535 28.8843 42.6535C28.4543 42.6535 28.0563 42.5665 27.6883 42.3945C27.3203 42.2185 27.0283 41.9735 26.8133 41.6575C26.6023 41.3415 26.4893 40.9815 26.4763 40.5775H27.8743C27.9033 40.8735 28.0053 41.1045 28.1813 41.2705C28.3603 41.4335 28.5933 41.5155 28.8803 41.5155C29.1993 41.5155 29.4443 41.4015 29.6163 41.1735C29.7893 40.9425 29.8763 40.6165 29.8763 40.1965C29.8763 39.7925 29.7763 39.4835 29.5773 39.2695C29.3783 39.0545 29.0983 38.9465 28.7333 38.9465C28.3983 38.9465 28.1253 39.0345 27.9173 39.2105L27.7803 39.3375L26.6573 39.0585L27.0673 35.4425ZM31.7183 35.4425H33.3252L34.7962 38.6475L36.2762 35.4425H37.8782L35.5422 39.9765V42.5565H34.0542V39.9765L31.7183 35.4425ZM13.4485 36.4875C13.1165 36.4875 12.8705 36.6175 12.7105 36.8745C12.5545 37.1285 12.4705 37.5275 12.4605 38.0715V39.8005C12.4605 40.3795 12.5385 40.8115 12.6945 41.0955C12.8545 41.3755 13.1105 41.5155 13.4585 41.5155C13.8035 41.5155 14.0515 41.3815 14.2045 41.1105C14.3575 40.8405 14.4385 40.4255 14.4445 39.8685V38.1795C14.4445 37.5895 14.3635 37.1615 14.2005 36.8945C14.0415 36.6235 13.7905 36.4875 13.4485 36.4875ZM40.1791 37.1735C40.8501 37.1735 41.3861 37.3305 41.7861 37.6455C42.1901 37.9615 42.3921 38.3735 42.3921 38.8785H40.9791C40.9791 38.6765 40.9141 38.5085 40.7841 38.3785C40.6541 38.2445 40.4521 38.1795 40.1751 38.1795C39.9371 38.1795 39.7522 38.2315 39.6222 38.3395C39.4922 38.4465 39.4272 38.5835 39.4272 38.7495C39.4272 38.9055 39.4992 39.0345 39.6452 39.1325C39.7951 39.2265 40.0482 39.3085 40.3991 39.3805C40.7511 39.4485 41.0471 39.5265 41.2881 39.6145C42.0341 39.8885 42.4071 40.3625 42.4071 41.0365C42.4071 41.5185 42.2001 41.9085 41.7861 42.2085C41.3731 42.5045 40.8391 42.6535 40.1851 42.6535C39.7422 42.6535 39.3462 42.5755 39.0012 42.4195C38.6592 42.2595 38.3922 42.0425 38.1962 41.7695C38.0012 41.4925 37.9032 41.1955 37.9032 40.8765H39.2412C39.2542 41.1275 39.3462 41.3195 39.5192 41.4525C39.6912 41.5865 39.9241 41.6515 40.2141 41.6515C40.4841 41.6515 40.6861 41.6025 40.8231 41.5015C40.9631 41.3975 41.0341 41.2615 41.0341 41.0955C41.0341 40.9225 40.9471 40.7865 40.7741 40.6885C40.6051 40.5875 40.3321 40.4995 39.9541 40.4215C38.6972 40.1575 38.0692 39.6245 38.0692 38.8195C38.0692 38.3505 38.2622 37.9585 38.6492 37.6455C39.0402 37.3305 39.5502 37.1735 40.1791 37.1735ZM16.8664 38.9405H19.6184V40.0795H16.8664V38.9405Z" fill="#333333"/>
</svg>

<?xml version="1.0" encoding="UTF-8" standalone="no"?>
<!-- Created with Inkscape (http://www.inkscape.org/) -->
<svg id="svg8" xmlns:rdf="http://www.w3.org/1999/02/22-rdf-syntax-ns#" xmlns="http://www.w3.org/2000/svg" height="48" viewBox="0 0 12.7 12.7" width="48" version="1.1" xmlns:cc="http://creativecommons.org/ns#" xmlns:dc="http://purl.org/dc/elements/1.1/">
 <title id="title4753">UIO-icon</title>
 <metadata id="metadata5">
  <rdf:RDF>
   <cc:Work rdf:about="">
    <dc:format>image/svg+xml</dc:format>
    <dc:type rdf:resource="http://purl.org/dc/dcmitype/StillImage"/>
    <dc:title>UIO-icon</dc:title>
    <dc:creator>
     <cc:Agent>
      <dc:title>Joaquín Urbano</dc:title>
     </cc:Agent>
    </dc:creator>
    <dc:rights>
     <cc:Agent>
      <dc:title>GPL</dc:title>
     </cc:Agent>
    </dc:rights>
   </cc:Work>
  </rdf:RDF>
 </metadata>
 <path id="text4858" d="m20.014 3.002c0.029 0.1015 0.065 0.1948 0.107 0.2812l0.002 0.002c0.043 0.0861 0.09 0.1667 0.141 0.2421l0.002 0.002c0.307 0.4553 0.715 0.7535 0.668 1.3672-1.268-0.4767-2.183-0.1876-3.356-0.1504-0.286 0.0091-0.583 0.007-0.91-0.0293 0.194 0.0968 0.376 0.1628 0.553 0.2168 0.902 0.2759 1.605 0.0992 2.402 0.3769-3.323 0.9884-5.228 3.2689-5.619 6.7755-0.086 1.688-0.094 3.381-0.084 5.072l-0.215-0.058c-0.757-0.207-1.014 0.18-0.932 1.404 0.015 0.216 0.055 0.418 0.088 0.623h-0.015c0.015 0.057 0.024 0.111 0.039 0.168 0.026 0.14 0.06 0.273 0.095 0.406 0.711 3.031 0.368 5.702-0.134 8.317v0.003c-0.061 0.26 0.241 0.354 0.513 0 0.248-0.291 0.489-0.524 0.727-0.73-0.101 0.913-0.245 1.812-0.416 2.701v0.004c-0.061 0.259 0.242 0.353 0.514 0 0.658-0.776 1.278-1.224 1.873-1.459 0.266 0.822 0.496 1.647 0.695 2.475v0.004c0.052 0.261 0.367 0.221 0.469-0.213 0.288-1.011 0.682-1.688 1.144-2.149 0.593 0.548 1.227 1.029 1.901 1.418 2.145 1.087 4.458 1.393 7.388 0.004 0.748-0.394 1.398-0.878 1.981-1.424 0.46 0.461 0.853 1.136 1.14 2.143 0.102 0.434 0.417 0.474 0.469 0.213v-0.004c0.199-0.828 0.429-1.653 0.695-2.475 0.595 0.235 1.215 0.683 1.873 1.459 0.273 0.353 0.575 0.259 0.514 0v-0.004c-0.171-0.889-0.315-1.787-0.416-2.701 0.238 0.206 0.479 0.439 0.727 0.731 0.272 0.353 0.574 0.259 0.513 0v-0.004c-0.511-2.663-0.859-5.383-0.095-8.483 0.003-0.014 0.008-0.023 0.011-0.037 0.016-0.068 0.036-0.169 0.055-0.248 0.011-0.041 0.018-0.081 0.029-0.123h-0.002c0.232-0.985 0.523-2.472-0.919-2.039-0.307-2.848 0.057-4.237-0.709-7.1073-0.325-0.9257-0.613-1.4459-1.217-2.2012-0.988-1.2348-2.438-2.1-4.33-2.584-1.011-0.2584-2.537-0.3841-4.059-0.377-0.208 0.001-0.414 0.0097-0.621 0.0157 0.003-0.0015 0.009-0.0025 0.012-0.0039 0.893-0.8038 1.338-0.7687 2.463-1.2012 0.315-0.1215 0.66-0.2622 1.113-0.4902-0.293 0.0943-0.545 0.15-0.772 0.1855-0.056 0.0088-0.101 0.0097-0.154 0.0156-0.162 0.0184-0.317 0.0305-0.453 0.0274-0.054-0.0012-0.104-0.0063-0.154-0.0098-0.123-0.0089-0.242-0.0177-0.35-0.0351-0.043-0.0069-0.087-0.0141-0.129-0.0215-0.141-0.0253-0.28-0.0469-0.414-0.0645-0.047-0.0062-0.098-0.0082-0.146-0.0117-0.083-0.006-0.168-0.0092-0.256-0.0039-0.061 0.0038-0.13 0.022-0.196 0.0332-0.083 0.0142-0.164 0.0216-0.257 0.0508-0.158 0.0495-0.33 0.1221-0.526 0.2265-0.232 0.1243-0.493 0.2876-0.801 0.5137-0.283-0.5911-1.155-0.4943-1.796-0.7383-0.006-0.0023-0.012-0.0055-0.018-0.0078-0.078-0.0307-0.154-0.067-0.225-0.1094-0.08-0.0505-0.156-0.1064-0.22-0.1796zm-2.993 10.523c0.187-0.023 0.453 0.061 0.94 0.233 1.621 0.572 2.997 1.418 4.543 2.793 0.684 0.608 0.713 0.591 0.715-0.424 0.001-0.776-0.135-1.364-0.436-1.885-0.116-0.202-0.268-0.532-0.219-0.562 5.103 1.243 5.746-1.631 9.813 2.074 0.143 0.16 0.324 1.153 0.416 2.273 0.029 0.357 0.085 0.624 0.125 0.6 0.039-0.024 0.155-0.211 0.258-0.414 0.103-0.204 0.316-0.495 0.472-0.647l0.079-0.076c0.003 0.07 0.002 0.093 0.005 0.164 2.297-0.599 0.368 2.77-0.277 3.785-0.393 0.423-0.467 0.56-0.789 1.446-1.179 2.728-2.593 5.28-5.252 6.701-2.784 1.338-4.98 1.042-7.018-0.004-2.369-1.39-4.266-3.893-5.302-6.998-0.189-0.566-0.285-0.736-0.584-1.033-1.134-1.456-2.032-4.339-0.053-3.86-0.001-0.023-0.001-0.04-0.002-0.064l0.029 0.029c0.23 0.236 0.494 0.535 0.588 0.664l0.17 0.235 0.006-0.479c0.012-1.362 0.511-2.938 1.313-4.144 0.167-0.253 0.274-0.383 0.46-0.407zm3.286 4.411c-0.584-0.001-1.057 0.471-1.057 1.054s0.474 1.056 1.057 1.055c0.582 0 1.054-0.472 1.054-1.055 0-0.582-0.472-1.054-1.054-1.054zm7.441 0.179c-0.582 0-1.054 0.473-1.055 1.055 0.001 0.582 0.473 1.054 1.055 1.055 0.582-0.001 1.055-0.473 1.055-1.055s-0.473-1.055-1.055-1.055zm-7.209 7.477c0.032 1.177 1.585 2.121 3.49 2.121 1.904-0.001 3.455-0.945 3.487-2.121-2.731 1.027-4.983 0.842-6.977 0zm-16.539 8.424v10h39.998v-10h-39.998zm9.449 1.33c0.775 0 1.367 0.256 1.778 0.767 0.41 0.508 0.621 1.239 0.63 2.194v1.308c0 0.984-0.204 1.737-0.611 2.258s-1.002 0.781-1.787 0.781c-0.775 0-1.369-0.256-1.779-0.767-0.411-0.512-0.621-1.243-0.631-2.198v-1.31c0-0.993 0.207-1.747 0.617-2.262 0.414-0.514 1.008-0.771 1.783-0.771zm-4.8474 0.088h0.1523v7.123h-1.4121v-5.442l-1.6856 0.522v-1.149l2.9454-1.054zm15.378 0h0.153v7.123h-1.412v-5.442l-1.686 0.522v-1.149l2.945-1.054zm3.088 0.009h3.987v1.178h-2.828l-0.176 1.529c0.335-0.179 0.69-0.269 1.068-0.269 0.678 0 1.21 0.211 1.594 0.631s0.576 1.008 0.576 1.763c0 0.46-0.098 0.872-0.293 1.237-0.192 0.361-0.468 0.642-0.83 0.843-0.361 0.199-0.789 0.299-1.281 0.299-0.43 0-0.828-0.087-1.196-0.259-0.368-0.176-0.66-0.421-0.875-0.737-0.211-0.316-0.324-0.676-0.337-1.08h1.398c0.029 0.296 0.131 0.527 0.307 0.693 0.179 0.163 0.412 0.245 0.699 0.245 0.319 0 0.564-0.114 0.736-0.342 0.173-0.231 0.26-0.557 0.26-0.977 0-0.404-0.1-0.713-0.299-0.927-0.199-0.215-0.479-0.323-0.844-0.323-0.335 0-0.608 0.088-0.816 0.264l-0.137 0.127-1.123-0.279 0.41-3.616zm4.651 0h1.607l1.471 3.205 1.48-3.205h1.602l-2.336 4.534v2.58h-1.488v-2.58l-2.336-4.534zm-18.27 1.045c-0.332 0-0.578 0.13-0.738 0.387-0.156 0.254-0.24 0.653-0.25 1.197v1.729c0 0.579 0.078 1.011 0.234 1.295 0.16 0.28 0.416 0.42 0.764 0.42 0.345 0 0.593-0.134 0.746-0.405 0.153-0.27 0.234-0.685 0.24-1.242v-1.689c0-0.59-0.081-1.018-0.244-1.285-0.159-0.271-0.41-0.407-0.752-0.407zm26.731 0.686c0.671 0 1.207 0.157 1.607 0.472 0.404 0.316 0.606 0.728 0.606 1.233h-1.413c0-0.202-0.065-0.37-0.195-0.5-0.13-0.134-0.332-0.199-0.609-0.199-0.238 0-0.423 0.052-0.553 0.16-0.13 0.107-0.195 0.244-0.195 0.41 0 0.156 0.072 0.285 0.218 0.383 0.15 0.094 0.403 0.176 0.754 0.248 0.352 0.068 0.648 0.146 0.889 0.234 0.746 0.274 1.119 0.748 1.119 1.422 0 0.482-0.207 0.872-0.621 1.172-0.413 0.296-0.947 0.445-1.601 0.445-0.443 0-0.839-0.078-1.184-0.234-0.342-0.16-0.609-0.377-0.805-0.65-0.195-0.277-0.293-0.574-0.293-0.893h1.338c0.013 0.251 0.105 0.443 0.278 0.576 0.172 0.134 0.405 0.199 0.695 0.199 0.27 0 0.472-0.049 0.609-0.15 0.14-0.104 0.211-0.24 0.211-0.406 0-0.173-0.087-0.309-0.26-0.407-0.169-0.101-0.442-0.189-0.82-0.267-1.257-0.264-1.885-0.797-1.885-1.602 0-0.469 0.193-0.861 0.58-1.174 0.391-0.315 0.901-0.472 1.53-0.472zm-23.313 1.767h2.752v1.139h-2.752v-1.139z" transform="scale(.26458)" stroke-width="3.7795" fill="#333"/>
</svg>
